img/download-icon.svg

<svg fill="none" height="27" viewBox="0 0 27 27" width="27" xmlns="http://www.w3.org/2000/svg" xmlns:xlink="http://www.w3.org/1999/xlink"><clipPath id="a"><path d="m0 0h26.702v26.702h-26.702z"/></clipPath><g clip-path="url(#a)" fill="#fff"><path d="m12.4346 19.4732c.2435.2415.5726.377.9155.377.343 0 .672-.1355.9155-.377l4.883-4.883c.1244-.1193.2238-.2622.2923-.4204.0684-.1582.1046-.3285.1064-.5008s-.0308-.3433-.0959-.5029-.1614-.3046-.2833-.4264c-.1219-.1219-.2668-.2182-.4264-.2834-.1596-.0651-.3306-.0977-.5029-.0959-.1724.0018-.3426.038-.5008.1065s-.3011.1678-.4204.2922l-2.672 2.6721v-14.13605c-.0094-.337093-.1498-.657237-.3916-.892354-.2417-.235118-.5657-.3666632-.9029-.3666632s-.6611.1315452-.9029.3666632c-.2417.235117-.3822.555261-.3916.892354v14.13695l-2.67399-2.673c-.24451-.2344-.57114-.3637-.90985-.3601s-.66254.1397-.90206.3792c-.23951.2396-.37565.5634-.37922.9021s.12572.6653.36014.9099z"/><path d="m25.321 12.8923c-.3548-.0111-.6994.119-.9583.3618s-.411.5784-.4227.9332v9.9259h-21.178v-9.9259c-.02312-.3506-.17867-.6792-.43511-.9193-.25645-.2401-.5946-.3737-.94589-.3737s-.689443.1336-.945888.3737-.4119944.5687-.435112.9193v10.358c.0195818.5909.272711 1.1499.703875 1.5544.431165.4046 1.005165.6216 1.596125.6036h22.1c.591.018 1.165-.199 1.5961-.6036.4312-.4045.6843-.9635.7039-1.5544v-10.358c-.0118-.3544-.1635-.6897-.422-.9324-.2584-.2428-.6026-.3732-.957-.3626z"/></g></svg>

<svg width="27" height="27" viewBox="0 0 27 27" fill="none" xmlns="http://www.w3.org/2000/svg">
<g clip-path="url(#clip0_382_9074)">
<path d="M12.4346 19.4732C12.6781 19.7147 13.0072 19.8502 13.3501 19.8502C13.6931 19.8502 14.0221 19.7147 14.2656 19.4732L19.1486 14.5902C19.273 14.4709 19.3724 14.328 19.4409 14.1698C19.5093 14.0116 19.5455 13.8413 19.5473 13.669C19.5491 13.4967 19.5165 13.3257 19.4514 13.1661C19.3863 13.0065 19.29 12.8615 19.1681 12.7397C19.0462 12.6178 18.9013 12.5215 18.7417 12.4563C18.5821 12.3912 18.4111 12.3586 18.2388 12.3604C18.0664 12.3622 17.8962 12.3984 17.738 12.4669C17.5798 12.5354 17.4369 12.6347 17.3176 12.7591L14.6456 15.4312V1.29515C14.6362 0.958057 14.4958 0.637913 14.254 0.402796C14.0123 0.167678 13.6883 0.0361328 13.3511 0.0361328C13.0139 0.0361328 12.69 0.167678 12.4482 0.402796C12.2065 0.637913 12.066 0.958057 12.0566 1.29515V15.4321L9.38261 12.7591C9.1381 12.5247 8.81147 12.3954 8.47276 12.399C8.13405 12.4026 7.81022 12.5387 7.5707 12.7782C7.33119 13.0178 7.19505 13.3416 7.19148 13.6803C7.18791 14.019 7.3172 14.3456 7.55162 14.5902L12.4346 19.4732Z" fill="white"/>
<path d="M25.321 12.8923C24.9662 12.8812 24.6216 13.0113 24.3627 13.2541C24.1038 13.4969 23.9517 13.8325 23.94 14.1873V24.1132H2.762V14.1873C2.73888 13.8367 2.58333 13.5081 2.32689 13.268C2.07044 13.0279 1.73229 12.8943 1.381 12.8943C1.02971 12.8943 0.691557 13.0279 0.435112 13.268C0.178667 13.5081 0.0231176 13.8367 0 14.1873V24.5453C0.0195818 25.1362 0.272711 25.6952 0.703875 26.0997C1.13504 26.5043 1.70904 26.7213 2.3 26.7033H24.4C24.991 26.7213 25.565 26.5043 25.9961 26.0997C26.4273 25.6952 26.6804 25.1362 26.7 24.5453V14.1873C26.6882 13.8329 26.5365 13.4976 26.278 13.2549C26.0196 13.0121 25.6754 12.8817 25.321 12.8923V12.8923Z" fill="white"/>
</g>
<defs>
<clipPath id="clip0_382_9074">
<rect width="26.702" height="26.702" fill="white"/>
</clipPath>
</defs>
</svg>
